X:1
T:Missa de bomba
T:Pedro  Bermúdez  (1558–1605) 
T:From the Música Colonial archive in Guatemala, manuscript 9-013
T:Missa de bomba
T:a 4
T:Copyright © 
T:Copyright © 
T:Copyright © 
C:Pedro  Bermúdez  (1558–1605)
C:
Z:From the Música Colonial archive
Z:in Guatemala, manuscript 9-013
Z:Copyright ©
%%score [ 1 2 3 4 ]
L:1/8
M:4/4
K:C
V:1 treble nm="Soprano" snm="S."
V:2 treble nm="Alto" snm="A."
V:3 treble-8 transpose=-12 nm="Tenor" snm="T."
V:4 bass nm="Bass" snm="B."
V:1
 e6 A2 | e2 A2 e2 f2 | g2 e4 d2 | e2 BB B2 c2 | A4 c4- | c2 B2 A4- | A2 ^G^F G8 ||[M:4/4] z8 | z8 | %9
w: Ky- ri-|e e- * *|* * lei-|son, ky- ri- e e-|||* lei- * son.|||
 z8 | z8 | e6 A2 | e2 A2 e2 f2 | g6 fe | f2 e4 d2 | e2 c2 B2 c2 | B^G A2 z e f2 | e2 f2 ec d2- | %18
w: ||Chris- te|e- * * *||* * lei-|son, Chris- te e-|lei- * son, Chris- te|_ _ _ _ _|
 dc c4 B2 | c4 z4 | z2 c4 c2 | c4 B4 | A4 ^G2 A2- | A2 ^G2 A8 ||[M:4/4] z2 BB cBcd | e2 cc dedd | %26
w: * * e- lei-|son,|Chris- te|_ _|* * e-|* lei- son.|Ky- ri- e e- * lei-|son, ky- ri- e _ _ _|
 c2 dd c2 AA | cBcd e2 c2- | cd ed cB/A/ B2 | A4 z4 | z4 z2 BB | c3 B AG A2- | A2 ^G2 A8 |] %33
w: _ e- lei- son, ky- ri-|e e- * lei- son, ky-|* ri- e e- * * * lei-|son,|ky- ri-|e e- * * *|* lei- son.|
V:2
 z8 | A3 A A2 A2 | G4 F4 | E2 GG G2 A2 | c3 B AG A2 | D2 E4 D2 | E12 ||[M:4/4] z8 | A6 D2 | %9
w: |Ky- ri- e e-|* lei-|son, ky- ri- e _|_ _ _ _ _|* e- lei-|son.||Chris- te|
 A2 D2 A2 B2 | c2 A2 ^G2 A2 | ^G2 A3 G F2 | E6 D2- | D2 C2 D4- | D2 E2 F2 F2 | E2 A2 ^G2 A2 | %16
w: e- * * lei-|son, Chris- te _|_ _ _ _|* e-|* lei- son,|_ Chris- te\_e- lei-|son, Chris- te e-|
 ^G2 E2 A4 | A3 B c2 BA | G6 G2 | G4 E4 | A,2 E2 A,2 E2- | E2 F2 G2 E2- | E2 D2 E4- | E12 || %24
w: ||* lei-|son, Chris-|te _ _ _|_ _ _ e-|* lei- son.||
[M:4/4] E3 E AGAF | E4 z2 DD | FEFG A2 FF | E2 AA G2 A2 | G2 EA- AG/F/ G2 | A4 z2 EE | F3 E F2 G2 | %31
w: Ky- ri- e e- * lei-|son, ky- ri-|e e- * lei- son, ky- ri-|e, ky- ri- e e-|* * * * * * lei-|son, ky- ri-|e e- * *|
 A2 E4 D2 | E12 |] %33
w: * * lei-|son.|
V:3
 z8 | z8 | z8 | e6 A2 | e2 A2 e2 f2 | g2 G2 A4 | B12 ||[M:4/4] z8 | z8 | z8 | e6 A2 | e2 A2 e2 f2 | %12
w: |||Ky- ri-|e e- * *|* * lei-|son.||||Chris- te|e- * * lei-|
 g2 c4 A2 | B2 G2 A3 G | AB c2 A4 | z2 e4 A2 | e2 A2 e2 d2 | c2 d2 e2 d2 | e4 d4 | c2 e4 A2 | %20
w: son, Chris- te|e- * * *|* * lei- son,|Chris- te|e- * * *||* lei-|son, Chris- te|
 e2 A2 e3 d | cB c2 d2 G2 | A3 B c4 | B4 A8 ||[M:4/4] z4 z4 | z2 ee fefg | a4 z4 | z2 AA cBcd | %28
w: e- * * *||* * lei-|* son.||Ky- ri- e e- * lei-|son,|ky- ri- e e- * lei-|
 e4 z2 BB | cBcd e2 BB | d3 c d2 B2 | A2 c4 A2 | B4 A8 |] %33
w: son, ky- ri-|e e- * lei- son, ky- ri-|e e- * *||lei- son.|
V:4
 z8 | z8 | z8 | z8 | A,3 A, A,2 A,2 | G,4 F,4 | E,12 ||[M:4/4] A,6 D,2 | A,2 D,2 A,2 B,2 | %9
w: ||||Ky- ri- e e-|* lei-|son.|Chris- te|e- * * *|
 C2 D3 C B,2 | A,3 !courtesy!^G, E,2 F,2 | E,2 C4 D2 | C2 A,3 G, F,2 | E,4 D,4- | D,2 C,2 D,4 | %15
w: |* * * lei-|son, Chris- te|e- * * *||* * lei-|
 A,4 z4 | z2 A,4 D,2 | A,2 D,2 A,2 B,2 | C4 G,4 | C,4 z4 | z2 A,4 A,2 | A,4 G,4 | F,4 E,4- | %23
w: son,|Chris- te|e- * * *|* lei-|son,|Chris- te|e- *|* lei-|
 E,4 A,8 ||[M:4/4] z4 z4 | A,3 A, DCDB, | A,2 D,D, F,E,F,G, | A,2 F,F, E,2 A,A, | CB,CD E2 E,E, | %29
w: * son.||Ky- ri- e e- * lei-|son, ky- ri- e _ _ _|_ e- lei- son, ky- ri-|e e- * lei- son, ky- ri-|
 A,G,A,F, E,4 | z4 z2 E,E, | A,3 G, A,2 F,2 | E,4 A,8 |] %33
w: e e- * lei- son,|ky- ri-|e e- * *|lei- son.|

